X: 41
T: No_141.krn
N: Derived from No_141.krn
%%abc-version 2.0
%%abcx-abcm2ps-target-version 5.9.1 (29 Sep 2008)
%%abc-creator hum2abc beta
%%abcx-conversion-date 2019/03/15 08:29:13
%%humdrum-veritas 4243540329
%%humdrum-veritas-data 2824713203
%%linebreak <none>
%%barnumbers 0
L: 1/8
M: 2/4
K: Db clef=treble
[K:clef=treble]FF F (3=G/A/A/ | 
FF F (3G/F/E/ | 
D4 | 
DD (3D/D/(D/ (F) | 
F)D FB, ||  
[M:3/4]A,6[K:clef=bass] ||  
[M:2/4](3A,/B,/B,/ D- D (3B,/B,/B,/ | 
F,3E, ||  
[M:3/4]D,4-D,A,/A,/ ||  
[M:2/4]B,3A,/F,/ ||  
[M:3/4]E,3D, E,3/D,/ | 
B,,6[K:clef=treble] ||  
[M:2/4]FF F/A3/- | 
A2FA | 
F2(3GFE | 
D4 | 
D2D/F3/ | 
F2DF | 
B,3A, | 
A,4[K:clef=bass] ||  
B,/B,/B, B,D- | 
DB,2D | 
F,3E, ||  
[M:3/4]D,6 | 
A,A,B,4 | 
A,B,F,4 | 
E,3D, E,3/D,/ | 
B,,6 |]  



